public/img/changeCarte.svg

<?xml version="1.0"?>
<svg width="576" height="512" xmlns="http://www.w3.org/2000/svg" xmlns:svg="http://www.w3.org/2000/svg" class="svg-inline--fa fa-map fa-w-18" data-icon="map" data-prefix="fas">
 <g class="layer">
  <title>Layer 1</title>
  <path d="m0,117.66l0,346.32c0,11.32 11.43,19.06 21.94,14.86l138.06,-62.84l0,-384l-139.88,55.95a32.01,32.01 0 0 0 -20.12,29.71zm192,298.34l192,64l0,-384l-192,-64l0,384zm362.06,-382.84l-138.06,62.84l0,384l139.88,-55.95a32,32 0 0 0 20.12,-29.71l0,-346.32c0,-11.32 -11.43,-19.06 -21.94,-14.86z" fill="#ffffff" id="svg_1"/>
 </g>
</svg>

<svg aria-hidden="true" focusable="false" data-prefix="fas" data-icon="map" class="svg-inline--fa fa-map fa-w-18" role="img" xmlns="http://www.w3.org/2000/svg" viewBox="0 0 576 512"><path fill="currentColor" d="M0 117.66v346.32c0 11.32 11.43 19.06 21.94 14.86L160 416V32L20.12 87.95A32.006 32.006 0 0 0 0 117.66zM192 416l192 64V96L192 32v384zM554.06 33.16L416 96v384l139.88-55.95A31.996 31.996 0 0 0 576 394.34V48.02c0-11.32-11.43-19.06-21.94-14.86z"></path></svg>
